align-horizontal-distribute.svg

<svg  viewBox="0 0 24 24" fill="currentColor"><path  d="M4 22H2V2H4V22M22 2H20V22H22V2M13.5 7H10.5V17H13.5V7Z"/></svg>

<svg fill="currentColor" viewBox="0 0 24 24"><path d="M4 22H2V2h2zM22 2h-2v20h2zm-8.5 5h-3v10h3z"/></svg>
